picto/remote-bus-right.svg

<svg class="color-immutable" width="24" height="24" viewBox="0 0 24 24" fill="none" xmlns="http://www.w3.org/2000/svg"><g clip-path="url(#a)"><path d="M0 22.5v-21C0 .675.675 0 1.5 0h21c.825 0 1.5.675 1.5 1.5v21c0 .825-.675 1.5-1.5 1.5h-21C.675 24 0 23.325 0 22.5Z" fill="#2D327D"/><path d="M20.394 15.593c-.559-3.552-1.93-9.705-1.93-9.705-.118-.546-.797-1.137-1.449-1.137H3v.896h3.169a.38.38 0 0 1 .381.381v4.214a.38.38 0 0 1-.381.381H3v1.522h11.069a.37.37 0 1 1 0 .74H3v.68h11.069a.37.37 0 1 1 0 .74H3v4.877h2.987c.386 0 .642-.177.642-.644 0-1.73 1.552-3.129 3.24-3.129 1.827 0 3.17 1.461 3.24 3.129 0 .4.211.644.649.644h5.993a.677.677 0 0 0 .677-.677v-2.454a3.143 3.143 0 0 0-.034-.458Zm-6.14-4.969H7.909a.458.458 0 0 1-.458-.458V6.105c0-.253.205-.458.458-.458h4.204c.308 0 .479.245.597.458l1.904 3.835c.165.409-.107.684-.36.684Zm4.479 4.237-.044.009a.675.675 0 0 1-.731-.333L13.82 6.266a.466.466 0 0 1-.047-.124c-.052-.243.114-.534.346-.534l2.744.01c.397 0 .614.224.727.634l1.662 7.808a.675.675 0 0 1-.519.801ZM21.631 9.959l-.274-1.974-.004-.024c-.082-.393-.21-.834-.548-1.124-.284-.244-.671-.353-1.253-.353h-.442l.14.741h.303c.509 0 .684.099.771.174.131.113.225.329.303.701l.272 1.961a.371.371 0 0 0 .417.316.37.37 0 0 0 .315-.418Z" fill="#fff"/><path d="M9.87 21a2.351 2.351 0 0 1-2.348-2.349 2.35 2.35 0 0 1 2.348-2.348 2.351 2.351 0 0 1 2.349 2.348A2.353 2.353 0 0 1 9.87 21Zm0-3.607c-.67 0-1.215.545-1.215 1.215a1.216 1.216 0 0 0 2.431 0 1.218 1.218 0 0 0-1.216-1.215Z" fill="#fff"/></g><defs><clipPath id="a"><path fill="#fff" d="M0 0h24v24H0z"/></clipPath></defs></svg>

<svg class="color-immutable" width="24" height="24" viewBox="0 0 24 24" fill="none" xmlns="http://www.w3.org/2000/svg"><path d="M0 22.5V1.5C0 0.675 0.675 0 1.5 0H22.5C23.325 0 24 0.675 24 1.5V22.5C24 23.325 23.325 24 22.5 24H1.5C0.675 24 0 23.325 0 22.5Z" fill="#2D327D"/><path d="M20.394 15.593C19.835 12.041 18.464 5.888 18.464 5.888C18.346 5.342 17.667 4.751 17.015 4.751H3V5.597V5.647H6.169C6.38 5.647 6.55 5.818 6.55 6.028V10.242C6.55 10.453 6.379 10.623 6.169 10.623H3V12.145H14.069C14.274 12.145 14.439 12.311 14.439 12.515C14.439 12.719 14.273 12.885 14.069 12.885H3V13.565H14.069C14.274 13.565 14.439 13.731 14.439 13.935C14.439 14.139 14.273 14.305 14.069 14.305H3V19.182H5.987C6.373 19.182 6.629 19.005 6.629 18.538C6.629 16.808 8.181 15.409 9.869 15.409C11.696 15.409 13.039 16.87 13.109 18.538C13.109 18.938 13.32 19.182 13.758 19.182H19.751C20.125 19.182 20.428 18.879 20.428 18.505C20.428 18.505 20.428 16.256 20.428 16.051C20.429 15.849 20.405 15.667 20.394 15.593ZM14.254 10.624H7.909C7.656 10.624 7.451 10.419 7.451 10.166V6.105C7.451 5.852 7.656 5.647 7.909 5.647H12.113C12.421 5.647 12.592 5.892 12.71 6.105L14.614 9.94C14.779 10.349 14.507 10.624 14.254 10.624ZM18.733 14.861L18.689 14.87C18.399 14.932 18.102 14.797 17.958 14.537L13.82 6.266C13.798 6.227 13.783 6.185 13.773 6.142C13.721 5.899 13.887 5.608 14.119 5.608L16.863 5.618C17.26 5.618 17.477 5.842 17.59 6.252L19.252 14.06C19.33 14.425 19.097 14.783 18.733 14.861Z" fill="white"/><path d="M21.631 9.959L21.357 7.985L21.353 7.961C21.271 7.568 21.143 7.127 20.805 6.837C20.521 6.593 20.134 6.484 19.552 6.484H19.11L19.25 7.225H19.553C20.062 7.225 20.237 7.324 20.324 7.399C20.455 7.512 20.549 7.728 20.627 8.1L20.899 10.061C20.925 10.246 21.083 10.381 21.265 10.381C21.282 10.381 21.299 10.38 21.316 10.377C21.518 10.349 21.66 10.162 21.631 9.959Z" fill="white"/><path d="M9.86997 21C8.57497 21 7.52197 19.946 7.52197 18.651C7.52197 17.356 8.57597 16.303 9.86997 16.303C11.165 16.303 12.219 17.356 12.219 18.651C12.218 19.946 11.165 21 9.86997 21ZM9.86997 17.393C9.19997 17.393 8.65497 17.938 8.65497 18.608C8.65497 19.278 9.19997 19.823 9.86997 19.823C10.54 19.823 11.086 19.278 11.086 18.608C11.085 17.938 10.54 17.393 9.86997 17.393Z" fill="white"/></svg>
